X: 1
T: Sunshine Delight
M: 4/4
L: 1/8
Q: 1/4=140
K: G major
V:1
|: "G" G2 B2 d2 B2 | "C" e2 g4 e2 | "D" d2 f2 ^c2 A2 | "G" B2 G2 D4 |
| "G" G2 B2 d2 B2 | "Em" E2 G2 B2 G2 | "C" e2 g4 e2 | "D" d2 ^c2 A2 F2 |
| "G" B2 B2 d2 B2 | "C" c2 e2 g2 e2 | "Am" ^c2 A4 B2 | "G" G2 B2 D4 :|
| "G" d2 B2 G2 B2 | "C" e2 c2 e4 d2 | "G" B2 G2 d4 c2 | "D" A2 ^c2 A4 |
| "G" G2 B2 d2 B2 | "Em" E2 G2 B4 z2 | "C" e2 g2 e4 d2 | "D" ^c2 d2 A4 |
| "G" G2 B2 d2 B2 | "C" e2 c2 e4 d2 | "G" B2 G2 d4 c2 | "D" A2 ^c2 A4 z2 :|
```

```abc
